!!!OTL: 674. Der Aschenmann.
!!!ODT: 1826
!!!ARE: Europa, Mitteleuropa, Deutschland
!!!SCT: B0674
!!!TXL: @@DE
!!!YEM: Copyright 1995, estate of Helmut Schaffrath.
**kern	**text
*ICvox	*
*Ivox	*
*clefG2	*
*M2/4	*
*met(c)	*
*k[b-]	*
*F:	*
!LO:TX:a:t=Erʒahlend.	!
{8cc	So
=1	=1
8.bn	Man-
16cc	-cher
8.dd	ſtetgt
16cc	her-
=2	=2
4a	-um,
8r}	.
{8a	der
=3	=3
8.g#	Hoch-
16a	-mut
8.b-	bringt
16a	ihn
=4	=4
4f	um,
8r}	.
{8f	trägt
=5	=5
8e	ei-
8f	-nen
8g	ſchö-
8a	-nen
=6	=6
(8b-	Rock,
4ee)}	.
{8dd	iſt
=7	=7
8cc	dünner
8b-	.
8a	als
8g	ein
=8	=8
4f	Stock;
8r}	.
{8cc	So
=1	=1
8.bn	Man-
16cc	-cher
8.dd	ſtetgt
16cc	her-
=2	=2
4a	-um,
8r}	.
{8a	der
=3	=3
8.g#	Hoch-
16a	-mut
8.b-	bringt
16a	ihn
=4	=4
4f	um,
8r}	.
{8f	trägt
=5	=5
8e	ei-
8f	-nen
8g	ſchö-
8a	-nen
=6	=6
(8b-	Rock,
4ee)}	.
{8dd	iſt
=7	=7
8cc	dünner
8b-	.
8a	als
8g	ein
=8	=8
4f	Stock;
8r}	.
{8cc	vom
=9	=9
8dd	Stolʒ
8cc	ganʒ
8a	auf-
8f	-gebläht,
=10	=10
4e	.
8r}	.
{8cc	o
=11	=11
8dd	Freundchen,
8cc	.
8b-	das
8g	iſt
=12	=12
4f	öd';
8r}	.
{8cc	wie
=13	=13
8dd	lang
8cc	ſtebt's
8a	denn
8f	noch
=14	=14
4e	an:
8r}	.
{8cc	biſt
=15	=15
!LO:TUP:a	!
(12eeL	auch
12ddJ	.
12cc)	ein
!LO:TUP:a	!
(>12b-L	A-
12aJ	-ſchenmann,
12g)	.
=16	=16
4f	.
8r}	.
{8cc	ein
=17	=17
(4.cc	A-
8e)	.
=18	=18
4f	-ſchen,
8r	.
8cc	ein
=19	=19
(4.cc	A-
8e)	.
=20	=20
4f	-ſchen.
8r}	.
==	==
!!!AGN: Moral - Lied, Vergaenglichkeit, Tod
!!!GTL: Didaktische Lieder: Betrachtungen, Vergleiche und Moralisationen
!!!ONB: ESAC (Essen Associative Code) Database: BOEHME
!!!AMT: simple duple
!!!AIN: vox
!!!EED: Helmut Schaffrath
!!!EEV: 1.0
!!!RDF**kern: > = above
!!Aus "Bauer als Millionaer". 1826.
!!@@COMMENT:"Aus "Bauer als Millionaer", Posse von F. Raimund
!!(Schauspieldichter und Direktor des Leopoldstädter Theaters in Wien
!! von 1817-1830). Musik von Joseph Drechsler."
!!@@END:
!!!Text: F. Raimund
!!!URL-scan: https://archive.org/details/BoehmeVtLieder1895/page/n525/mode/2up
!!!ENC: Anna Maria Matuszewska
!!!EEV: 2024/16/07
*-	*-
